src/static/img/svg/caret.svg

<svg xmlns="http://www.w3.org/2000/svg" width="10" height="6" viewBox="0 0 10 6">
  <path fill="#8892CF" d="M4,2.93933983 L7.46966991,-0.530330086 C7.76256313,-0.823223305 8.23743687,-0.823223305 8.53033009,-0.530330086 C8.8232233,-0.237436867 8.8232233,0.237436867 8.53033009,0.530330086 L4.53033009,4.53033009 C4.23743687,4.8232233 3.76256313,4.8232233 3.46966991,4.53033009 L-0.530330086,0.530330086 C-0.823223305,0.237436867 -0.823223305,-0.237436867 -0.530330086,-0.530330086 C-0.237436867,-0.823223305 0.237436867,-0.823223305 0.530330086,-0.530330086 L4,2.93933983 Z" transform="translate(1 1)"/>
</svg>

<svg height="6" viewBox="0 0 10 6" width="10" xmlns="http://www.w3.org/2000/svg"><path d="m4 2.93933983 3.46966991-3.46966992c.29289322-.29289322.76776696-.29289322 1.06066018 0 .29289321.29289322.29289321.76776696 0 1.06066018l-4 4c-.29289322.29289321-.76776696.29289321-1.06066018 0l-4-4c-.29289322-.29289322-.29289322-.76776696 0-1.06066018s.76776696-.29289322 1.06066018 0z" fill="#8892cf" transform="translate(1 1)"/></svg>
